src/icons/svg/edit.svg

<?xml version="1.0" encoding="UTF-8"?>
<svg width="40px" height="32px" viewBox="0 0 40 32" version="1.1" xmlns="http://www.w3.org/2000/svg"
>
    <path d="M19.9103139,23.6771301 L22.5112108,21.0762332 L19.103139,17.6681614 L16.5022422,20.2690583 L16.5022422,21.5246637 L18.6547085,21.5246637 L18.6547085,23.6771301 L19.9103139,23.6771301 L19.9103139,23.6771301 Z M29.7757848,7.53363229 C29.5366218,7.29446936 29.2899851,7.30194321 29.0358745,7.55605383 L21.1883408,15.4035875 C20.9342302,15.6576981 20.9267563,15.9043349 21.1659193,16.1434978 C21.4050822,16.3826607 21.651719,16.3751869 21.9058296,16.1210762 L29.7533632,8.27354261 C30.0074739,8.01943199 30.0149477,7.77279522 29.7757848,7.53363229 Z M31.5695068,20.852018 L31.5695068,25.1121076 C31.5695068,26.8908819 30.9379671,28.4118087 29.6748879,29.6748879 C28.4118087,30.9379671 26.8908819,31.5695068 25.1121076,31.5695068 L6.45739912,31.5695068 C4.67862483,31.5695068 3.15769807,30.9379671 1.89461882,29.6748879 C0.631539582,28.4118087 0,26.8908819 0,25.1121076 L0,6.45739912 C0,4.67862483 0.631539608,3.15769807 1.89461882,1.89461882 C3.15769804,0.631539582 4.67862481,5.57600802e-16 6.45739912,5.57600802e-16 L25.1121076,5.57600802e-16 C26.0538117,5.57600802e-16 26.9282511,0.186846035 27.735426,0.560538106 C27.9596413,0.665171887 28.0941704,0.837070254 28.1390135,1.07623321 C28.1838565,1.33034383 28.1165919,1.54708522 27.9372197,1.7264574 L26.838565,2.82511211 C26.6292975,3.03437967 26.3901345,3.09417041 26.1210763,3.00448432 C25.7772795,2.91479824 25.4409567,2.86995518 25.1121076,2.86995515 L6.45739912,2.86995515 C5.47085203,2.86995515 4.62630793,3.22122571 3.92376682,3.92376682 C3.22122571,4.62630793 2.86995515,5.47085203 2.86995515,6.45739912 L2.86995515,25.1121076 C2.86995515,26.0986547 3.22122571,26.9431988 3.92376682,27.6457399 C4.62630793,28.348281 5.47085203,28.6995516 6.45739912,28.6995516 L25.1121076,28.6995516 C26.0986547,28.6995516 26.9431988,28.348281 27.6457399,27.6457399 C28.348281,26.9431988 28.6995516,26.0986547 28.6995516,25.1121076 L28.6995516,22.2869955 C28.6995516,22.0926757 28.7668161,21.9282511 28.9013453,21.793722 L30.3363229,20.3587444 C30.5605381,20.1345292 30.8221226,20.0822123 31.1210762,20.2017937 C31.4200299,20.3213752 31.5695068,20.5381166 31.5695068,20.852018 Z M29.4170404,4.30493275 L35.8744395,10.7623318 L20.8071749,25.8295964 L14.3497758,25.8295964 L14.3497758,19.3721973 L29.4170404,4.30493275 Z M39.3721973,7.26457399 L37.3094171,9.32735428 L30.8520179,2.86995515 L32.9147982,0.807174905 C33.3333334,0.388639778 33.8415546,0.179372214 34.4394619,0.179372214 C35.0373692,0.179372214 35.5455905,0.388639778 35.9641256,0.807174905 L39.3721973,4.21524666 C39.7907324,4.63378179 40,5.142003 40,5.73991031 C40,6.33781761 39.7907324,6.84603884 39.3721973,7.26457399 L39.3721973,7.26457399 Z"
          id="形状"></path>
</svg>

<svg width="40" height="32" xmlns="http://www.w3.org/2000/svg"><path d="M19.91 23.677l2.601-2.6-3.408-3.409-2.6 2.601v1.256h2.152v2.152h1.255zm9.866-16.143c-.24-.24-.486-.232-.74.022l-7.848 7.848c-.254.254-.261.5-.022.74.24.239.486.231.74-.023l7.847-7.847c.254-.255.262-.501.023-.74zm1.794 13.318v4.26c0 1.779-.632 3.3-1.895 4.563s-2.784 1.895-4.563 1.895H6.457c-1.778 0-3.3-.632-4.562-1.895C.632 28.412 0 26.89 0 25.112V6.457c0-1.778.632-3.3 1.895-4.562C3.158.632 4.679 0 6.457 0h18.655c.942 0 1.816.187 2.623.56a.68.68 0 0 1 .404.516.698.698 0 0 1-.202.65l-1.098 1.1c-.21.208-.449.268-.718.178a3.988 3.988 0 0 0-1.009-.134H6.457c-.986 0-1.83.351-2.533 1.054C3.22 4.626 2.87 5.47 2.87 6.457v18.655c0 .987.351 1.831 1.054 2.534.702.702 1.547 1.054 2.533 1.054h18.655c.987 0 1.831-.352 2.534-1.054.702-.703 1.054-1.547 1.054-2.534v-2.825c0-.194.067-.359.201-.493l1.435-1.435c.225-.224.486-.277.785-.157.299.12.449.336.449.65zM29.417 4.305l6.457 6.457L20.807 25.83H14.35v-6.458L29.417 4.305zm9.955 2.96L37.31 9.327 30.852 2.87 32.915.807A2.076 2.076 0 0 1 34.439.18c.598 0 1.107.21 1.525.628l3.408 3.408c.419.419.628.927.628 1.525 0 .598-.21 1.106-.628 1.525z"/></svg>
